svgs/spooky.svg

<svg width="192" height="192" viewBox="0 0 192 192" fill="none" xmlns="http://www.w3.org/2000/svg">
<path d="M41 81.3015V124.296C41 127.61 43.6863 130.296 47 130.296H62.8744C64.5312 130.296 65.8744 131.64 65.8744 133.296V139.357C65.8744 141.014 64.5312 142.357 62.8744 142.357H47C43.6863 142.357 41 145.043 41 148.357V164C41 167.866 44.134 171 48 171H82.995C86.861 171 89.995 167.866 89.995 164V124.236C89.995 120.922 87.3087 118.236 83.995 118.236H68.8744C67.2175 118.236 65.8744 116.893 65.8744 115.236V109.176C65.8744 107.519 67.2175 106.176 68.8744 106.176H81.995C86.4133 106.176 89.995 102.594 89.995 98.1759V81.3015M41 81.3015H89.995M41 81.3015L57.7902 40.598M89.995 81.3015L73.7136 40.598M73.7136 40.598L65.8744 21L57.7902 40.598M73.7136 40.598H57.7902" stroke="black" stroke-width="10" stroke-linecap="round" stroke-linejoin="round"/>
<path d="M151.05 96.3769L150.404 137.727C150.344 141.55 147.228 144.618 143.405 144.618H117.131C117.131 153.663 112.608 157.432 102.055 157.432V96.3769M151.05 96.3769H102.055M151.05 96.3769L134.16 54.9196M102.055 96.3769L118.433 54.9196M134.16 54.9196L126.176 35.3216L118.433 54.9196M134.16 54.9196H118.433" stroke="black" stroke-width="10" stroke-linecap="round" stroke-linejoin="round"/>
<path d="M128 115H125C121.686 115 119 117.686 119 121C119 124.314 121.686 127 125 127H128C131.314 127 134 124.314 134 121C134 117.686 131.314 115 128 115Z" stroke="black" stroke-width="6" stroke-linecap="round" stroke-linejoin="round"/>
</svg>

<svg width="192" height="192" viewBox="0 0 192 192" fill="none" xmlns="http://www.w3.org/2000/svg"><path d="M41 81.302v42.994a6 6 0 0 0 6 6h15.874a3 3 0 0 1 3 3v6.061a3 3 0 0 1-3 3H47a6 6 0 0 0-6 6V164a7 7 0 0 0 7 7h34.995a7 7 0 0 0 7-7v-39.764a6 6 0 0 0-6-6h-15.12a3 3 0 0 1-3-3v-6.06a3 3 0 0 1 3-3h13.12a8 8 0 0 0 8-8V81.302m-48.995 0h48.995m-48.995 0 16.79-40.704m32.205 40.704L73.714 40.598m0 0L65.874 21 57.79 40.598m15.924 0H57.79M151.05 96.377l-.646 41.35a7 7 0 0 1-6.999 6.891h-26.274c0 9.045-4.523 12.814-15.076 12.814V96.377m48.995 0h-48.995m48.995 0L134.16 54.92m-32.105 41.457 16.378-41.457m15.727 0-7.984-19.598-7.743 19.598m15.727 0h-15.727" stroke="#000" stroke-width="10" stroke-linecap="round" stroke-linejoin="round"/><path d="M128 115h-3a6 6 0 1 0 0 12h3a6 6 0 1 0 0-12Z" stroke="#000" stroke-width="6" stroke-linecap="round" stroke-linejoin="round"/></svg>
